X:1
T:Lonely Midnight, 6.5.6.5.D
T:Lonely Midnight, 6.5.6.5.D
T:Alonzo Potter Howard (1838-1902)
T:Public Domain Courtesy of the Cyber Hymnal™
C:Alonzo Potter Howard (1838-1902)
Z:Public Domain
Z:Courtesy of the Cyber Hymnal™
%%score 1 ( 2 3 )
L:1/8
Q:1/4=115
M:4/4
K:Eb
V:1 treble 
V:2 bass 
V:3 bass 
V:1
 [EGB]2 [EGB]2 [EGB]2 [EGc]2 | [EGc]4 [EGB]4 | [DA]2 [DG]2 [DF]2 [C=E]2 | [B,DF]4 [DFB]4 | %4
 [EGB]2 [EGB]2 [EGB]2 [EGc]2 | [EGc]4 [EGB]4 | [DGB]2 [D^F=A]2 [DFA]2 [FAd]2 | [GBd]4 [FAd]4 | %8
 [EGBe]2 [DGBd]2 [CEGc]2 [CEG]2 | [DAc]4 [DAc]4 | [DAd]2 [DAc]2 [B,DF]2 [DFAc]2 | [B,EGB]8 | %12
 [_DEG]2 [DEG]2 [DEA]2 [DEB]2 | [CEc]4 [E^Fce]4 | [EGBe]2 [CEG]2 [CEF]2 [B,DFB]2 | [G,B,E]8 |] %16
V:2
 [E,B,]2 [B,,B,]2 [E,B,]2 [B,,B,]2 | B,4 B,4 | [F,B,]2 [G,B,]2 [A,B,]2 [G,B,]2 | (A,2 B,,2) A,4 | %4
 [E,G,]2 [B,,B,]2 [E,B,]2 [B,,B,]2 | B,4 B,4 | [D,,D,]2 D,2 [D,C]2 [D,C]2 | %7
 ([G,,G,]2 [D,G,B,]2) ([B,,,B,,]2 [B,,F,A,]2) | [E,,,E,,]2 [E,G,B,]2 [B,,,B,,]2 [E,G,B,]2 | %9
 ([F,,F,]2 [A,B,D]2) ([B,,,B,,]2 [A,B,D]2) | [B,,,B,,]2 [A,B,D]2 [B,,,B,,]2 [B,,A,]2 | %11
 ([E,,,E,,]2 E,2 G,2 B,2) | [E,B,]2 [E,B,]2 [F,B,]2 [G,B,]2 | A,4 [=A,,=A,]4 | %14
 [B,,B,]2 [C,G,]2 [A,,A,]2 [B,,A,]2 | [E,,E,]8 |] %16
V:3
 x8 | (E,2 B,,2) (E,2 B,,2) | x8 | x4 (F,2 B,,2) | x8 | (E,2 B,,2) (E,2 B,,2) | x2 D,2 x4 | x8 | %8
 x8 | x8 | x8 | x8 | x8 | =A,4 x4 | x8 | x8 |] %16

